images/icons/binance.svg

<svg width="193" height="39" viewBox="0 0 193 39" fill="none" xmlns="http://www.w3.org/2000/svg">
<path d="M9.3933 19.322L5.02533 23.6863L0.661133 19.322L5.02533 14.9578L9.3933 19.322ZM19.9829 8.72473L27.4617 16.2074L31.8259 11.8431L19.9829 0L8.13992 11.8431L12.5041 16.2074L19.9829 8.72473ZM34.9442 14.9578L30.58 19.322L34.9442 23.6863L39.3047 19.322L34.9442 14.9578ZM19.9829 29.9193L12.5041 22.4404L8.13992 26.8009L19.9829 38.644L31.8259 26.8009L27.4617 22.4404L19.9829 29.9193ZM19.9829 23.6863L24.3471 19.322L19.9829 14.9578L15.6187 19.322L19.9829 23.6863ZM66.041 24.1053V24.0449C66.041 21.1983 64.5309 19.775 62.0732 18.8388C63.5833 17.9893 64.8594 16.6566 64.8594 14.2669V14.2065C64.8594 10.8767 62.194 8.72473 57.8638 8.72473H48.0331V29.9193H58.113C62.8962 29.9193 66.0486 27.9826 66.0486 24.1053H66.041ZM60.2271 15.0446C60.2271 16.6189 58.9247 17.2871 56.8672 17.2871H52.5747V12.8134H57.1767C59.1436 12.8134 60.2347 13.5986 60.2347 14.9917L60.2271 15.0446ZM61.4088 23.5239C61.4088 25.0982 60.1667 25.8231 58.1054 25.8231H52.5747V21.1681H57.962C60.3555 21.1681 61.4163 22.0478 61.4163 23.4711L61.4088 23.5239ZM75.8378 29.9193V8.72473H71.1603V29.9193H75.8378ZM100.902 29.9193V8.72473H96.2846V21.776L86.3557 8.72473H82.0557V29.9193H86.6577V16.4452L96.9189 29.9193H100.902ZM126.728 29.9193L117.63 8.57371H113.33L104.25 29.9193H109.003L110.948 25.1662H119.91L121.847 29.9193H126.728ZM118.253 21.0473H112.605L115.421 14.1763L118.253 21.0473ZM148.953 29.9193V8.72473H144.336V21.776L134.403 8.72473H130.107V29.9193H134.705V16.4452L144.97 29.9193H148.953ZM173.02 26.4989L170.057 23.5013C168.392 25.0114 166.908 25.9816 164.485 25.9816C160.853 25.9816 158.339 22.9614 158.339 19.322V19.2616C158.339 15.6298 160.913 12.6624 164.485 12.6624C166.603 12.6624 168.26 13.5684 169.906 15.0521L172.862 11.6317C170.895 9.69498 168.505 8.3623 164.507 8.3623C157.999 8.3623 153.457 13.2966 153.457 19.3107V19.3711C153.457 25.4569 158.089 30.2704 164.326 30.2704C168.407 30.2817 170.827 28.8282 173.005 26.4989H173.02ZM192.916 29.9193V25.7665H181.394V21.3078H191.387V17.155H181.394V12.8738H192.75V8.72095H176.762V29.9155L192.916 29.9193Z" fill="#424147"/>
</svg>

<svg width="193" height="39" fill="none" xmlns="http://www.w3.org/2000/svg"><path d="m9.393 19.322-4.368 4.364-4.364-4.364 4.364-4.364 4.368 4.364Zm10.59-10.597 7.479 7.482 4.364-4.364L19.983 0 8.14 11.843l4.364 4.364 7.479-7.482Zm14.961 6.233-4.364 4.364 4.364 4.364 4.36-4.364-4.36-4.364ZM19.983 29.919l-7.479-7.479L8.14 26.8l11.843 11.844 11.843-11.843-4.364-4.36-7.48 7.478Zm0-6.233 4.364-4.364-4.364-4.364-4.364 4.364 4.364 4.364Zm46.058.42v-.061c0-2.847-1.51-4.27-3.968-5.206 1.51-.85 2.786-2.182 2.786-4.572v-.06c0-3.33-2.665-5.482-6.995-5.482h-9.83v21.194h10.079c4.783 0 7.936-1.936 7.936-5.814h-.008Zm-5.814-9.061c0 1.574-1.302 2.242-3.36 2.242h-4.292v-4.474h4.602c1.967 0 3.058.786 3.058 2.179l-.008.053Zm1.182 8.479c0 1.574-1.242 2.3-3.304 2.3h-5.53v-4.656h5.387c2.393 0 3.454.88 3.454 2.303l-.007.053Zm14.429 6.395V8.725H71.16v21.194h4.678Zm25.064 0V8.725h-4.617v13.051l-9.93-13.051h-4.3v21.194h4.603V16.445l10.26 13.474h3.984Zm25.826 0L117.63 8.574h-4.3l-9.08 21.345h4.753l1.945-4.753h8.962l1.937 4.753h4.881Zm-8.475-8.872h-5.648l2.816-6.87 2.832 6.87Zm30.7 8.872V8.725h-4.617v13.051l-9.933-13.051h-4.296v21.194h4.598V16.445L144.97 29.92h3.983Zm24.067-3.42-2.963-2.998c-1.665 1.51-3.149 2.48-5.572 2.48-3.632 0-6.146-3.02-6.146-6.659v-.06c0-3.632 2.574-6.6 6.146-6.6 2.118 0 3.775.906 5.421 2.39l2.956-3.42c-1.967-1.937-4.357-3.27-8.355-3.27-6.508 0-11.05 4.935-11.05 10.949v.06c0 6.086 4.632 10.9 10.869 10.9 4.081.01 6.501-1.443 8.679-3.772h.015Zm19.896 3.42v-4.152h-11.522v-4.46h9.993v-4.152h-9.993v-4.281h11.356V8.72h-15.988v21.194l16.154.004Z" fill="#424147"/></svg>
